X:1
T:Title
%%score { ( 1 2 5 ) | ( 3 4 ) }
L:1/8
Q:1/4=100
M:4/4
K:Ab
V:1 treble nm="Grand Piano"
V:2 treble 
V:5 treble 
V:3 bass 
V:4 bass 
V:1
 c2 z2 z2 A2 | z A3- A[K:bass] z F2 | E2[K:treble] z2 A2 c2 | B4[K:bass] z4[K:treble] | %4
w: Charles~H.~Gabriel *||||
 c2 z2 c2 z2 | z A3- A[K:bass] z F2 | E2[K:treble] z2 e2 G2 |[M:3/4] [CA]4 z2 |[M:1/4] A2 | %9
w: |||||
[M:4/4] z B,FG AB=dc | c2 B4[K:bass][K:treble] z2 | B2 z2 z4 | z[K:bass] B,EB, z B,[K:treble] G2 | %13
w: ||||
 A2 z2 B2 z2 | c4 e2 z2 | B2 z2 A2 z2 |[M:3/4] E4 z2 |[M:4/4] e2 e>e c3 A | A2 G4 z2 | %19
w: ||||||
 F2 F>F G3 F | [DF]2 [CE]4 [CE][CE] | [CA][CA] [EA]2 B2 EE | cc c2 d2 [A=d][Ad] | %23
w: ||||
 [Ae]3 [EAc] [DGB]3 [CEA] | [CEA]6 z2 |] %25
w: ||
V:2
 z E,cc cB z E, | .F2 .D2 z[K:bass] F, z F, | z E,[K:treble]EE z E, z z/ c/ | %3
 z[K:bass] E,G,B, ED[K:treble] E2 | z E,cc z E,BA | .F2 .D2 z[K:bass] F, z F, | %6
 z E,[K:treble]Ac z E, z z/ G/ |[M:3/4] x6 |[M:1/4] x2 |[M:4/4] A2 z2 z4 | %10
 z E, z[K:bass] B, z2[K:treble] .[EG]2 | z B,FG AcBA | G4[K:bass] E,,4[K:treble] | z A,AA z G,EE | %14
 z A,EA, z _G,=dc | z G,GG z CGF |[M:3/4] x6 |[M:4/4] x8 | x8 | x8 | x8 | x8 | x8 | x8 | x8 |] %25
V:3
 z2 [A,C]E, z E, .[A,C]2 | z F,A,F, z2 .[A,D]2 | z2 [A,C]E, z2 .[A,C]2 | E,,4 z2 CB, | %4
 z2 [A,C]E, z2 [A,C]E, | z F,A,F, z2 .[A,D]2 | z2 [A,C]E, z2 .[B,D]2 |[M:3/4] [A,,E,]4 z2 | %8
[M:1/4] z2 |[M:4/4] z2 [A,=D]B, z B,[A,D]B, | z2 .[G,E]2 z G,B,E, | z2 [A,=D]B, z B,[A,D]B, | %12
 z2 .G,2 z2 [B,E]E, | z2 [CE]A, z2 [B,D]G, | z2 .C2 .=A,,2 [CE]_G, | z2 [B,E]E, z2 B,A, | %16
[M:3/4] [E,G,]4 z2 |[M:4/4][K:treble] [A,CA]2 [A,CA]>[A,CA] [A,EA]3 [A,CE] | [E,CE]2 [E,B,E]4 z2 | %19
 [E,G,D]2 [E,G,D]>[E,G,D] [E,B,E]3 [E,G,D] | [A,,A,]2 [A,,A,]4 [A,,A,][A,,A,] | %21
 [A,,A,][A,,A,] [C,A,]2 [E,G,E]2 [E,G,][G,B,] | [A,E][A,E] [_G,A,E]2 [F,A,D]2 [=E,_C][E,C] | %23
 [E,C]3 E, E,3 A,, | A,,6 z2 |] %25
V:4
 A,,4 A,,4 | D,,4 D,,4 | A,,4 A,,4 | x8 | A,,4 A,,4 | D,,4 D,,4 | E,,4 E,,4 |[M:3/4] x6 | %8
[M:1/4] x2 |[M:4/4] B,,4 B,,4 | E,,4 z4 | B,,4 B,,4 | E,,4 z4 | C,4 B,,4 | A,,4 _A,,4 | B,,4 B,,4 | %16
[M:3/4] x6 |[M:4/4][K:treble] x8 | x8 | x8 | x8 | x8 | x8 | x8 | x8 |] %25
V:5
 x8 | x5[K:bass] x3 | z4[K:treble] z2 z E, | x[K:bass] x5[K:treble] x2 | x8 | x5[K:bass] x3 | %6
 z4[K:treble] z2 z E, |[M:3/4] x6 |[M:1/4] x2 |[M:4/4] x8 | z4[K:bass] E,,4[K:treble] | x8 | %12
 x[K:bass] x5[K:treble] x2 | x8 | x8 | x8 |[M:3/4] x6 |[M:4/4] x8 | x8 | x8 | x8 | x8 | x8 | x8 | %24
 x8 |] %25

